X:753
T:Morag of Dunvegan
S:Forgotten
Z:Nigel Gatherer
M:3/4
L:1/4
K:D
F2F | FED | F2A | A3  | d2d | dcd | B2A | A3  |
F2F | FEF | B2A | A3  | Bd2 | BAF | E3  | D3 ||
d3  | d2B | B2D | D3  | F3  | FEF | B2A | A3  |
d3  | d2B | A2D | D3  | F2F | A2F | E3  | D3 |]
<end>
<start>
